X:1
%
T:Cumberland Reel [3], The
M:2/4
L:1/8
R:Country Dance
N:Under section of "Dances, 1786".
B:Samuel, Ann & Peter Thompson - Compleat Collection of 200 Favourite Country Dances, vol. 5 (1788, p. 29)
N:" As they are Perform'd at Court, Bath and all Publick Assemblys ."
Z:AK/Fiddler's Companion
K:G
[G,2D2B2g2] a/g/f/e/|dd dc/B/|eeeg|d2B2|
A/B/c/B/ Ad|GGBG|A/B/c/A/ Bd|G2G2:|
|:D2 FE/D/|GGBG|D2 FE/D/|G2 GA/B/|
cd/c/ Bc/B/|AB/A/ {G}FE/D/|EcAF|G2G2:|]

